X:311
T:Angoloise efter Sven Lorenz Bruun (nr 2)
M:2/4
L:1/8
R:Engelska
Z:Jonas Brunskog, 23/6 2008
O:Mönsterås, Döderhultsvik, Småland
S:efter Sven Lorenz Bruun
B:[[http://www.smus.se/earkiv/fmk/browselarge.php?lang=sw&katalogid=M+188&bildnr=00059|SMUS - katalog M188 bild 59]] (Datering: -1837. Angläs 2 av 2.)
N:Folkmusikkommissionens notsamling, Bild: 59 Volym: M 188 
K:Bb
|:ba b2|f=e f2|dc d2|BA Be/2d/2|cc/2B/2 AA/2G/2|F/2A/2c/2A/2 B2:|
L:1/16
|:cdcB ABcA|BcBA Bdfd|cdcB ABcA|BdcA B4:|
(:musicend:)

(:music:)
